weblate/static/icons/settings.svg

<svg width="18" height="18" version="1.1" viewBox="0 0 18 18" xmlns="http://www.w3.org/2000/svg"><g fill="none" fill-rule="evenodd"><g transform="translate(-1302 -162)" fill="#2A3744" fill-rule="nonzero"><g transform="translate(1302 162)"><path d="m0 14v2h6v-2h-6zm0-12v2h10v-2h-10zm10 16v-2h8v-2h-8v-2h-2v6h2zm-6-12v2h-4v2h4v2h2v-6h-2zm14 4v-2h-10v2h10zm-6-4h2v-2h4v-2h-4v-2h-2v6z"/></g></g></g></svg>

<svg xmlns="http://www.w3.org/2000/svg" xmlns:xlink="http://www.w3.org/1999/xlink" width="18" height="18" version="1.1" viewBox="0 0 18 18"><title>563EA14A-30E5-4A3A-A63A-5B410CB8943D</title><desc>Created with sketchtool.</desc><g id="App-UI" fill="none" fill-rule="evenodd" stroke="none" stroke-width="1"><g id="Translation" fill="#2A3744" fill-rule="nonzero" transform="translate(-1302.000000, -162.000000)"><g id="IconSettings" transform="translate(1302.000000, 162.000000)"><path id="Shape" d="M0,14 L0,16 L6,16 L6,14 L0,14 L0,14 Z M0,2 L0,4 L10,4 L10,2 L0,2 L0,2 Z M10,18 L10,16 L18,16 L18,14 L10,14 L10,12 L8,12 L8,18 L10,18 L10,18 Z M4,6 L4,8 L0,8 L0,10 L4,10 L4,12 L6,12 L6,6 L4,6 L4,6 Z M18,10 L18,8 L8,8 L8,10 L18,10 L18,10 Z M12,6 L14,6 L14,4 L18,4 L18,2 L14,2 L14,0 L12,0 L12,6 Z"/></g></g></g></svg>
